!!!COM: Hugo Wolf
!!!CNT: Deutscher
!!!TXO: Deutsche 
!!!OTL: Ein Stu2ndlein wohl vor Tag
!!!ONM: No. 3
!!!ODT: 1888/
!!!LYR: Moericke
!!!ENC: Brian Bice
!!!YOR: 65 Songs for voice and piano, International Music Company, 1960
!!NB: Vocal melody and text only encoded.
**kern	**silbe
*clefG2	*
*k[b-e-]	*
*M4/4	*
=4	=4
2r	.
4r	.
{4dd	{Der-
=5	=5
4dd	-weil
4ee-	ich
4b-	schla-
4cc	-fend
=6	=6
2cc#	lag,
4r	.
4cc#	ein
=7	=7
4dd	Stu2nd-
4ee	-lein
4b	wohl
4ccn	vor
=8	=8
2cc#}	Tag,}
4r	.
{4dd-	{sang
=9	=9
4ccn	vor
4ccn	dem
4ccn	Fen-
4ff	-ster
=10	=10
4ee-	auf
(8b-	dem
8cc)	|
4dd-	Baum
4cc	ein
=11	=11
4b-	Schwalb-
4dd-	-lein
4dd-	mir,
4ee-	ich
=12	=12
4dd-	ho2rt'
(8aa-	es
8b-)	|
4cc	kaum,
4cc	ein
=13	=13
4cc	Stu2nd-
4dd-	-lein
4a-	wohl
4b-	vor
=14	=14
2.cc-}	Tag:}
4r	.
=16	=16
2r	.
4r	.
{4ee-	{"Ho2r'
=17	=17
4ee-	an,
4ff-	was
4cc-	ich
4dd-	die
=18	=18
2ddn	sag',
4r	.
4ddn	dein
=19	=19
4ee-	Scha2tz-
4ff-	-lein
4cc-	ich
4dd-	ver-
=20	=20
2ddn}	-klag':}
4r	.
{4ddn	{der-
=21	=21
4cc#	-weil
4cc#	ich
4cc#	die-
4ff#	-ses
=22	=22
4een	sin-
(8bn	-gen
8cc#)	|
4dd	tu',
4cc#	herzt
=23	=23
4bn	er
4dd	ein
4dd	Lieb
4een	in
=24	=24
4dd	gu-
(8a	-ter
8bn)	|
4cc#	Ruh',
4cc#	ein
=25	=25
4cc#	Stu2nd-
4dd	-lein
4a	wohl
4bn	vor
=26	=26
2.b#}	Tag."}
4r	.
=27	=27
2r	.
4r	.
{4een	{O
=28	=28
4een	weh!
4ff	nicht
4cc	wei-
4dd	-ter
=29	=29
2dd#	sag'!
4r	.
4dd#	O
=30	=30
4een	still!
4ff	nichts
4cc	ho2-
4dd	-ren
=31	=31
2dd#}	mag!}
4r	.
{4ddn	{Flieg'
=32	=32
4gg	ab,
8r	.
8gg	flieg'
4.ff	ab
8gg	von
=33	=33
4ff	mei-
(8ee-	-nem
8dd)	|
4ee-	Baum!
4dd	Ach,
=34	=34
4cc	Lieb
4ee-	und
4ee-	Treu
4ff	ist
=35	=35
4ee-	wie
(8dd	ein
8cc)	|
4dd	traum,
4dd	ein
=36	=36
4dd	Stu2nd-
4ee-	-lein
4bb-	wohl
4cc	vor
=37	=37
1cc#}	Tag.}
*-	*-
